X:1
T:City of Savannah -- Hornpipe
R:hornpipe
C:Frank Livingston
B:Cole's 1000 Fiddle Tunes
M:2/4
L:1/16
K:D
(3vABA)FA dfaf|gaba gfed|(cd)"4"ed cdBc|ABGA FFG^G|
(3vABA)FA dfaf|gaba gfed|(cb)ag feBc|d2f2d2z2:|
|:((3v"0"efe)c"0"e k"1"aek"3"c'e|k"2"bek"2"^ge kaekbe|\
((3vefe)vc"0"e k"1"aek"3"c'e|k"2"bek"2"^ge ka2z2|
((3vaba)k=ga keakca|((3aba)kfa kdakAa|\
((3vgag)Bg ((3fgf)Af|"0"e"1"a"2"b"3"c' "4"d'2z2:|
